build/svg/cmd/sc_sbaexecutesql.svg

<?xml version="1.0" encoding="UTF-8" standalone="no"?>
<svg
   xmlns:dc="http://purl.org/dc/elements/1.1/"
   xmlns:cc="http://creativecommons.org/ns#"
   xmlns:rdf="http://www.w3.org/1999/02/22-rdf-syntax-ns#"
   xmlns:svg="http://www.w3.org/2000/svg"
   xmlns="http://www.w3.org/2000/svg"
   xmlns:sodipodi="http://sodipodi.sourceforge.net/DTD/sodipodi-0.dtd"
   xmlns:inkscape="http://www.inkscape.org/namespaces/inkscape"
   viewBox="0 0 16 16"
   version="1.1"
   id="svg4"
   sodipodi:docname="sc_sbaexecutesql.svg"
   inkscape:export-filename="/home/jupiter007/Libreoffice yaru theme fullcolor/build/cmd/sc_sbaexecutesql.png"
   inkscape:export-xdpi="96"
   inkscape:export-ydpi="96"
   inkscape:version="0.92.5 (2060ec1f9f, 2020-04-08)"><metadata
   id="metadata10">
  <rdf:RDF>
    <cc:Work
       rdf:about="">
      <dc:format>image/svg+xml</dc:format>
      <dc:type
         rdf:resource="http://purl.org/dc/dcmitype/StillImage" />
    </cc:Work>
  </rdf:RDF>
</metadata>
<defs
   id="defs8" />
<sodipodi:namedview
   pagecolor="#ffffff"
   bordercolor="#666666"
   borderopacity="1"
   objecttolerance="10"
   gridtolerance="10"
   guidetolerance="10"
   inkscape:pageopacity="0"
   inkscape:pageshadow="2"
   inkscape:window-width="1920"
   inkscape:window-height="1011"
   id="namedview6"
   showgrid="false"
   inkscape:zoom="14.75"
   inkscape:cx="0.44067797"
   inkscape:cy="8"
   inkscape:window-x="0"
   inkscape:window-y="32"
   inkscape:window-maximized="1"
   inkscape:current-layer="svg4" />
/&gt;<path
   style="fill:#f2cbf8;fill-opacity:1;stroke-width:0.91666681"
   id="path817"
   d="m 8.0000002,2.4999999 c -3.037566,0 -5.5,0.8208113 -5.5,1.8333333 v 7.3333328 c 0,1.012522 2.462434,1.833334 5.5,1.833334 C 11.037565,13.5 13.5,12.679188 13.5,11.666666 V 4.3333332 c 0,-1.012522 -2.462435,-1.8333333 -5.4999998,-1.8333333 z"
   inkscape:connector-curvature="0"
   sodipodi:nodetypes="sssssss" />
<path
   inkscape:connector-curvature="0"
   d="m 8.0000002,1.9999999 a 6,2 0 0 0 -6,2 V 12 a 6,2 0 0 0 6,2 A 6,2 0 0 0 14,12 V 3.9999999 a 6,2 0 0 0 -5.9999998,-2 z m 0,1 a 5,1 0 0 1 4.9999998,1 5,1 0 0 1 -4.9999998,1 5,1 0 0 1 -5,-1 5,1 0 0 1 5,-1 z m -5,2.1015625 a 6,2 0 0 0 5,0.8984375 A 6,2 0 0 0 13,5.1035155 v 2.8964844 a 5,1 0 0 1 -4.9999998,1 5,1 0 0 1 -5,-1 z m 0,4.0000005 a 6,2 0 0 0 5,0.898437 A 6,2 0 0 0 13,9.1035159 V 12 a 5,1 0 0 1 -4.9999998,1 5,1 0 0 1 -5,-1 z"
   id="path2"
   style="fill:#8e03a3;fill-opacity:1" />
<path
   sodipodi:nodetypes="cccccccc"
   style="opacity:0.6;fill:#000000;fill-opacity:1;stroke:#000000;stroke-width:2;stroke-linecap:butt;stroke-linejoin:round;stroke-miterlimit:4;stroke-dasharray:none;stroke-opacity:1"
   d="m 15.000052,11.50012 -4,3.5 v -2 H 7.0000508 v -3 H 11.000052 V 8.0001206 Z"
   id="path839"
   inkscape:connector-curvature="0" />
<path
   sodipodi:nodetypes="cccccccc"
   id="path841"
   d="m 15.000052,11.50012 -4,3.5 v -2 H 7.0000508 v -3 H 11.000052 V 8.0001206 Z"
   style="fill:#ffffff;fill-opacity:1;stroke:none;stroke-width:1px;stroke-linecap:butt;stroke-linejoin:miter;stroke-opacity:1"
   inkscape:connector-curvature="0" />
</svg>

<svg xmlns="http://www.w3.org/2000/svg" viewBox="0 0 16 16">/&gt;<path d="M8 2.5c-3.038 0-5.5.82-5.5 1.833v7.334C2.5 12.679 4.962 13.5 8 13.5s5.5-.82 5.5-1.833V4.333C13.5 3.321 11.038 2.5 8 2.5z" fill="#f2cbf8"/><path d="M8 2a6 2 0 00-6 2v8a6 2 0 006 2 6 2 0 006-2V4a6 2 0 00-6-2zm0 1a5 1 0 015 1 5 1 0 01-5 1 5 1 0 01-5-1 5 1 0 015-1zM3 5.102A6 2 0 008 6a6 2 0 005-.896V8a5 1 0 01-5 1 5 1 0 01-5-1zm0 4A6 2 0 008 10a6 2 0 005-.896V12a5 1 0 01-5 1 5 1 0 01-5-1z" fill="#8e03a3"/><path d="M15 11.5L11 15v-2H7v-3h4V8z" opacity=".6" stroke="#000" stroke-width="2" stroke-linejoin="round"/><path d="M15 11.5L11 15v-2H7v-3h4V8z" fill="#fff"/></svg>
